X:720
T:Dockedansen
C:Trad
R:Långdans
S:[[!Omtyckta Skånska Allspelslåtar]]
Z:Patrik Månsson, 2008-10-30
O:Skåne
M:3/4
L:1/8
K:C
|: A^c e2 f2 | de ^cA Bc | de d2 ^c2 | A^c e2 f2 | de ^cA Bc | de d2 z2 :|
|: fg a2 fa | ag e2 eg | gf d2 df | e^c A2 AB | ^cd e2 gf | de ^cA Bc | de d2 z2 :|
(:musicend:)
Dockedans är en egen upptecknad dans, men melodin fungerar även bra som [[Låttyper/Långdans|långdans]]
(:music:)
